frontend/public/images/quotes/nakamoto.svg

<svg xmlns="http://www.w3.org/2000/svg" width="667" height="800" fill="none"><path fill="gray" fill-opacity=".08" d="M619 799.996H0V701.7c1.028-.407 2.117-.705 3.07-1.244 2.28-1.292 4.472-2.735 6.736-4.05 2.795-1.621 5.643-3.15 8.438-4.767 2.645-1.526 5.236-3.15 7.881-4.672 6.72-3.866 13.513-7.608 20.166-11.587 3.488-2.083 7.146-3.817 10.487-6.262 5.123-3.749 10.82-6.711 16.29-9.982.802-.478 1.736-.727 2.538-1.209 6.793-4.081 13.607-8.12 20.328-12.318 3.017-1.884 6.05-3.847 8.687-6.206 5.063-4.525 10.57-8.131 17.076-10.189 2.373-.749 4.98-1.315 6.935-2.724 3.839-2.758 7.301-6.04 10.906-9.119 2.709-2.313 5.368-4.683 8.103-6.967 1.73-1.443 3.489-2.871 5.354-4.126a194.608 194.608 0 0 1 9.135-5.787c3.315-1.971 7.165-3.075 9.681-6.297a620.036 620.036 0 0 1 8.872-11.138c1.062-1.3 2.313-2.449 3.515-3.625 3.303-3.233 6.517-6.567 9.967-9.635 4.532-4.031 9.531-7.573 13.822-11.835 4.151-4.122 7.538-9.002 11.486-13.342 3.161-3.478 6.837-6.316 11.49-7.759 1.857-.576 3.582-1.741 5.214-2.86 1.329-.915 2.343-2.283 3.65-3.244 3.112-2.295 4.739-5.516 5.59-9.1 1.255-5.283 2.445-10.603 3.236-15.969.464-3.142 1.436-6.665-1.736-9.258-.437-.354-.822-.772-1.213-1.179-1.232-1.27-1.507-2.736-1.27-4.499.2-1.481-.113-3.026-.098-4.541.008-.802.045-1.684.377-2.385 2.366-4.981 2.916-7.053-1.82-9.966-.425-.264-.862-.509-1.288-.776-3.888-2.419-7.738-4.782-10.292-8.859-2.821-4.503-5.699-8.855-5.432-14.518.06-1.308-.309-2.845-1.006-3.942-4.826-7.588-6.25-16.142-7.368-24.816a492.108 492.108 0 0 0-1.831-12.834c-.821-5.313-2.724-10.565-1.891-15.991.844-5.498-1.567-9.043-5.659-12.129-1.375-1.04-2.621-2.536-3.348-4.096-1.843-3.964-3.365-8.075-4.992-12.137-.697-1.741-1.273-3.534-2-5.264-.769-1.835-1.684-3.61-2.475-5.437-.66-1.526-1.439-3.045-1.778-4.65-.411-1.944-.042-4.099-.667-5.938-1.887-5.585-1.854-11.142-.505-16.779.9-3.765 1.665-7.57 2.739-11.286 1.718-5.945 3.767-11.797 5.413-17.762.754-2.736 1.251-5.656 1.168-8.47-.057-1.907.305-3.252 1.567-4.511.26-.256.667-.618.629-.878-.301-2.106 1.247-2.928 2.573-3.956.396-.305.682-.803.9-1.266.272-.581.317-1.281.641-1.824a79.896 79.896 0 0 1 2.961-4.627 140.513 140.513 0 0 1 3.722-5.117c1.232-1.624 2.641-3.124 3.748-4.827 1.206-1.854 2.144-3.877 3.213-5.818.08-.143.268-.252.426-.328 3.632-1.725 6.423-4.514 9.158-7.347.961-.995 1.725-2.178 2.716-3.452 2.893-2.027 6.069-4.246 9.248-6.469a58.77 58.77 0 0 0-.248-.607l-4.133 1.266c-.128-.249-.26-.494-.388-.742 5.195-1.165 9.799-3.128 11.946-8.437-.354-.275-.87-.674-1.68-1.304 1.096-.655 1.97-1.19 2.859-1.703 1.601-.919 3.688-1.036 4.392-3.35.309-1.017 1.424-1.857 2.306-2.626 2.012-1.752 4.4-3.157 6.11-5.158 3.699-4.33 8.118-7.461 13.362-9.594 2.366-.961 4.611-2.227 6.883-3.402.478-.245.84-.712 1.269-1.055.558-.449 1.089-.946 1.703-1.296 1.115-.641 2.362-1.074 3.402-1.805 1.092-.765 1.88-2.009 3.021-2.649 3.858-2.167 7.817-4.153 11.727-6.225 2.984-1.583 5.975-3.161 8.917-4.823 1.239-.697 2.294-1.737 3.548-2.389 2.362-1.225 4.796-2.31 7.226-3.403 2.388-1.073 4.807-2.079 7.21-3.116 1.887-.814 3.718-1.801 5.666-2.415 2.904-.916 5.888-1.571 8.838-2.336l-.095.075c1.255-.335 2.521-.625 3.76-1.013 4.257-1.342 8.525-2.653 12.737-4.126 1.036-.362 2.23-1.101 2.708-2.005.659-1.236 1.285-1.861 2.871-1.492-.471.893-2.637.034-2.147 2.121.444-.056.832-.034 1.164-.158 2.203-.833 4.219-2.344 6.826-1.628.403.11.979-.448 1.488-.678.621-.283 1.231-.641 1.883-.791 1.872-.422 3.869-.486 5.628-1.176 4.551-1.786 8.635-.836 12.616 1.549.588.35 1.27.542 1.907.806.079-.169.162-.339.241-.509l-5.38-2.758c.057-.173.113-.346.174-.516 4.595.143 9.338-.75 13.516 2.623.128-1.918-.565-2.759-1.925-3.407-.964-.459-1.684-1.428-2.513-2.17l.26-.46 10.465 3.052c.125-.248.245-.497.366-.75-1.515-.987-2.909-2.313-4.566-2.875-2.189-.742-4.585-.885-6.89-1.277-.983-.169-1.974-.316-2.961-.471 2.332-.396 4.618-.362 6.898-.422.459-.011.907-.384 1.446-.629 1.153.267 2.55.595 3.948.923l-.015-.362c-5.014-4.503-10.024-9.009-15.038-13.512.135-.185.271-.365.41-.55 2.562 1.579 5.139 3.127 7.678 4.74 2.629 1.669 5.048 3.832 7.88 4.985 3.542 1.44 5.873 4.164 8.627 6.474.739.618 1.575 1.123 2.471 1.756.554.659 1.172 1.593 1.978 2.317 1.386 1.24 2.893 2.344 4.344 3.516.52.418 1.017.859 1.525 1.288.347-.475.694-.946 1.131-1.545.267.43.41.886.719 1.116 1.514 1.123 1.409 4.544 4.63 3.293.169-.064.569.256.753.482 1.225 1.522 2.694 1.293 4.299.765-.102-.305-.2-.478-.211-.659-.046-.652-.061-1.308-.087-1.96.509.46 1.077.867 1.518 1.387.836.987 1.45 2.219 2.426 3.022 1.616 1.326 3.462 2.374 5.18 3.583.983.694 1.902 1.47 3.179 2.468-.301-1.062-.437-1.718-.67-2.34-.69-1.861-1.432-3.704-2.117-5.569-.117-.312-.174-.946-.061-.994 1.888-.852-.214-1.263-.177-2.163.535.184 1.255.233 1.364.512.433 1.119.693 2.31.976 3.486.113.467-.03 1.04.188 1.428.957 1.707 2.483 3.244 2.927 5.056 1.206 4.921 6.212 5.554 9.034 8.588.158.173.629.011.9.132 2.298 1.009 4.818 1.081 7.154 2.302 4.622 2.423 9.542 4.292 14.394 6.251 1.876.757 3.877 1.383 5.877 1.624 1.819.218 3.296.769 4.618 2.001.377.354 1.025.441 1.567.591 2.355.652 4.724 1.263 7.075 1.937.399.113.75.445 1.085.724 1.955 1.601 4.238 1.884 6.593 1.428 2.053-.4 2.84-.031 3.488 1.967.753 2.324 1.978 4.261 4.43 5.181.392.147.757.685.893 1.122.546 1.734 1.277 3.475 1.416 5.253.196 2.457.833 4.232 3.911 4.314-1.839 1.037-2.14 3.539-.705 4.394 1.13.674 2.483.972 3.715 1.488.768.321 1.499.735 2.738 1.357-2.237 1.153-3.857 1.989-5.116 2.634.701 1.077 1.718 2.204 1.545 2.441-1.616 2.178-.252 3.821.735 5.566.169.301.267.644.455 1.104-.557-.053-.938-.087-1.329-.125l.211 1.338c-1.526-.637-2.415.004-2.449 1.236-.064 2.581.151 5.075 2.377 7.024 1.364 1.19 2.577 2.69 2.279 4.845-.071.52.343 1.191.705 1.666.791 1.043 1.657 2.031 2.546 2.992 3.986 4.299 8.137 8.455 11.938 12.909 2.897 3.395 5.361 7.163 8.171 10.972-2.2.396-1.755 1.255-.927 1.937 2.935 2.408 3.994 5.999 5.47 9.194 2.279 4.929 3.847 10.185 5.719 15.302.245-.045.49-.087.731-.132v-4.326l.843.034-.384 6.824c.2.03.4.06.599.094.317-1.104.637-2.204.953-3.308.14.008.279.015.418.026l.577 5.434.682.056 1.085-3.184c.35.588.625.912.753 1.285 1.081 3.248 2.219 6.481 3.176 9.767.836 2.871.892 6.116 2.294 8.64 2.464 4.428 1.914 9.164 2.347 13.765.452 4.789.237 9.65.181 14.476a57.588 57.588 0 0 1-.562 7.243c-.282 2.031-.892 4.016-1.307 6.032-.486 2.374-2.042 4.665-.392 7.205-2.516.908-3.032 3.044-3.835 5.011-.802 1.967-1.733 3.885-2.648 5.912-.215-.354-.441-.735-.81-1.349-.218.972-.377 1.684-.539 2.397.174-.053.351-.106.524-.155.301.844 1.017 1.786.844 2.517-1.138 4.755-2.113 9.646-6.513 12.759-.193.135-.268.425-.441.599-1.017 1.021-2.049 2.031-3.078 3.044-.267-.229-.535-.459-.806-.689 1.288-1.926 2.332-4.096 3.933-5.709 1.774-1.786 3.16-3.587 3.808-6.055.362-1.383.064-2.121-1.352-2.807-.252.644-.332 1.322-.708 1.714-1.793 1.881-3.406 4.126-5.576 5.407-2.757 1.628-5.993 2.442-9.011 3.637-.327.131-.629.414-.859.697-2.29 2.777-6.11 2.788-8.781 4.879-.12.094-.384.091-.546.03-1.631-.599-2.027.422-2.14 1.681-.128 1.424-.73 2.314-2.298 2.408l.385-3.128c-2.396 2.853-3.056 6.526-6.389 7.506-.569-.527-1.18-1.213-1.27-1.153-.716.498-1.33 1.134-1.963 1.718 1.91 2.182 2.182 5.863-.523 7.156-.238-2.212-.46-4.262-.678-6.312-.234-.041-.467-.086-.701-.128-.821 1.538-1.804 3.018-2.407 4.639-.475 1.281-.482 2.739-.69 4.122-.09.618-.267 1.247-.214 1.858.15 1.684.03 3.214-1.323 4.487-.38.362-.406 1.112-.568 1.692-.4 1.417-.415 3.131-1.259 4.19-1.507 1.884-2.041 4.021-2.426 6.217-.263 1.5-.049 3.083-.049 4.707-.463-.174-.998-.377-1.586-.596-.03 3.15-.666 5.008-1.91 5.573 1.187 1.07.603 1.903-.109 3.022-.764 1.206-1.028 2.751-1.428 4.171-.478 1.7-.504 3.667-1.412 5.072-.814 1.259-1.194 2.302-1.13 3.753.06 1.398.022 2.917-.464 4.201-1.514 4.021-3.258 7.955-4.927 11.919-.143.339-.328.768-.618.919-2.366 1.24-2.701 3.666-3.39 5.837-3.097 9.721-5.726 19.616-9.324 29.149-2.547 6.749-5.907 13.305-9.742 19.421-4.829 7.698-10.985 14.439-17.653 20.69-3.431 3.221-6.969 6.24-9.5 10.516-5.576 9.428-11.837 18.452-17.894 27.59-3.044 4.589-6.329 9.024-9.339 13.636-.557.856-.685 2.325-.399 3.335a97.14 97.14 0 0 0 3.277 9.608c.637 1.59 1.688 3.03 2.679 4.45a36.496 36.496 0 0 0 3.051 3.799c1.97 2.151 3.718 4.717 6.118 6.217 3.307 2.072 7.101 3.391 10.747 4.891 3.184 1.311 6.442 2.445 9.682 3.625 4.295 1.559 8.548 3.27 12.917 4.578 4.419 1.322 8.981 2.159 13.442 3.349 1.789.479 3.428 1.47 3.816 3.516.429 2.272.791 4.563.99 6.865.347 3.976 1.568 7.363 5.485 9.145 2.332 1.063 4.728 1.986 7.026 3.109 3.828 1.869 7.666 3.723 11.377 5.806 4.633 2.604 9.222 5.31 13.682 8.203 2.822 1.828 5.376 4.066 8.043 6.135 3.458 2.683 7.003 5.264 10.333 8.097 4.423 3.768 8.695 7.71 12.985 11.628 2.773 2.533 5.749 4.921 8.134 7.789 5.507 6.628 11.569 12.8 16.195 20.178 2.848 4.54 6.498 8.572 9.485 13.037 2.532 3.791 4.777 7.792 6.875 11.843 2.419 4.665 4.494 9.503 6.807 14.228.569 1.161 1.507 2.129 2.2 3.233 1.854 2.954 3.666 5.935 5.497 8.9l.011-.004ZM352.193 170.914c3.413-.871 6.822-1.745 10.235-2.615-3.563.286-7.108.644-10.235 2.615Z"/></svg>

<svg width="667" height="800" viewBox="0 0 667 800" fill="none" xmlns="http://www.w3.org/2000/svg">
<path d="M619 799.996H0C0 767.229 0 734.467 0 701.7C1.02843 701.293 2.11713 700.995 3.07021 700.456C5.34933 699.164 7.5418 697.721 9.80584 696.406C12.6011 694.785 15.449 693.256 18.2442 691.639C20.8887 690.113 23.4805 688.489 26.1251 686.967C32.8456 683.101 39.6378 679.359 46.2905 675.38C49.7789 673.297 53.4368 671.563 56.7782 669.118C61.9015 665.369 67.5974 662.407 73.0673 659.136C73.8697 658.658 74.8039 658.409 75.6063 657.927C82.3985 653.846 89.2132 649.807 95.9338 645.609C98.9512 643.725 101.984 641.762 104.621 639.403C109.684 634.878 115.191 631.272 121.697 629.214C124.07 628.465 126.677 627.899 128.632 626.49C132.471 623.732 135.933 620.45 139.538 617.371C142.247 615.058 144.906 612.688 147.641 610.404C149.371 608.961 151.13 607.533 152.995 606.278C155.986 604.266 159.033 602.333 162.13 600.491C165.445 598.52 169.295 597.416 171.811 594.194C174.731 590.453 177.677 586.73 180.683 583.056C181.745 581.756 182.996 580.607 184.198 579.431C187.501 576.198 190.715 572.864 194.165 569.796C198.697 565.765 203.696 562.223 207.987 557.961C212.138 553.839 215.525 548.959 219.473 544.619C222.634 541.141 226.31 538.303 230.963 536.86C232.82 536.284 234.545 535.119 236.177 534C237.506 533.085 238.52 531.717 239.827 530.756C242.939 528.461 244.566 525.24 245.417 521.656C246.672 516.373 247.862 511.053 248.653 505.687C249.117 502.545 250.089 499.022 246.917 496.429C246.48 496.075 246.095 495.657 245.704 495.25C244.472 493.98 244.197 492.514 244.434 490.751C244.634 489.27 244.321 487.725 244.336 486.21C244.344 485.408 244.381 484.526 244.713 483.825C247.079 478.844 247.629 476.772 242.893 473.859C242.468 473.595 242.031 473.35 241.605 473.083C237.717 470.664 233.867 468.301 231.313 464.224C228.492 459.721 225.614 455.369 225.881 449.706C225.941 448.398 225.572 446.861 224.875 445.764C220.049 438.176 218.625 429.622 217.507 420.948C216.957 416.664 216.339 412.384 215.676 408.114C214.855 402.801 212.952 397.549 213.785 392.123C214.629 386.625 212.218 383.08 208.126 379.994C206.751 378.954 205.505 377.458 204.778 375.898C202.935 371.934 201.413 367.823 199.786 363.761C199.089 362.02 198.513 360.227 197.786 358.497C197.017 356.662 196.102 354.887 195.311 353.06C194.651 351.534 193.872 350.015 193.533 348.41C193.122 346.466 193.491 344.311 192.866 342.472C190.979 336.887 191.012 331.33 192.361 325.693C193.261 321.928 194.026 318.123 195.1 314.407C196.818 308.462 198.867 302.61 200.513 296.645C201.267 293.909 201.764 290.989 201.681 288.175C201.624 286.268 201.986 284.923 203.248 283.664C203.508 283.408 203.915 283.046 203.877 282.786C203.576 280.68 205.124 279.858 206.45 278.83C206.846 278.525 207.132 278.027 207.35 277.564C207.622 276.983 207.667 276.283 207.991 275.74C208.925 274.165 209.912 272.62 210.952 271.113C212.15 269.376 213.4 267.676 214.674 265.996C215.906 264.372 217.315 262.872 218.422 261.169C219.628 259.315 220.566 257.292 221.635 255.351C221.715 255.208 221.903 255.099 222.061 255.023C225.693 253.298 228.484 250.509 231.219 247.676C232.18 246.681 232.944 245.498 233.935 244.224C236.828 242.197 240.004 239.978 243.183 237.755C243.101 237.551 243.018 237.348 242.935 237.148C241.556 237.57 240.181 237.992 238.802 238.414C238.674 238.165 238.542 237.92 238.414 237.672C243.609 236.507 248.213 234.544 250.36 229.235C250.006 228.96 249.49 228.561 248.68 227.931C249.776 227.276 250.65 226.741 251.539 226.228C253.14 225.309 255.227 225.192 255.931 222.878C256.24 221.861 257.355 221.021 258.237 220.252C260.249 218.5 262.637 217.095 264.347 215.094C268.046 210.764 272.465 207.633 277.709 205.5C280.075 204.539 282.32 203.273 284.592 202.098C285.07 201.853 285.432 201.386 285.861 201.043C286.419 200.594 286.95 200.097 287.564 199.747C288.679 199.106 289.926 198.673 290.966 197.942C292.058 197.177 292.846 195.933 293.987 195.293C297.845 193.126 301.804 191.14 305.714 189.068C308.698 187.485 311.689 185.907 314.631 184.245C315.87 183.548 316.925 182.508 318.179 181.856C320.541 180.631 322.975 179.546 325.405 178.453C327.793 177.38 330.212 176.374 332.615 175.337C334.502 174.523 336.333 173.536 338.281 172.922C341.185 172.006 344.169 171.351 347.119 170.586L347.024 170.661C348.279 170.326 349.545 170.036 350.784 169.648C355.041 168.306 359.309 166.995 363.521 165.522C364.557 165.16 365.751 164.421 366.229 163.517C366.888 162.281 367.514 161.656 369.1 162.025C368.629 162.918 366.463 162.059 366.953 164.146C367.397 164.09 367.785 164.112 368.117 163.988C370.32 163.155 372.336 161.644 374.943 162.36C375.346 162.47 375.922 161.912 376.431 161.682C377.052 161.399 377.662 161.041 378.314 160.891C380.186 160.469 382.183 160.405 383.942 159.715C388.493 157.929 392.577 158.879 396.558 161.264C397.146 161.614 397.828 161.806 398.465 162.07C398.544 161.901 398.627 161.731 398.706 161.561C396.913 160.642 395.119 159.723 393.326 158.803C393.383 158.63 393.439 158.457 393.5 158.287C398.095 158.43 402.838 157.537 407.016 160.91C407.144 158.992 406.451 158.151 405.091 157.503C404.127 157.044 403.407 156.075 402.578 155.333C402.665 155.178 402.752 155.024 402.838 154.873C406.327 155.891 409.815 156.908 413.303 157.925C413.428 157.677 413.548 157.428 413.669 157.175C412.154 156.188 410.76 154.862 409.103 154.3C406.914 153.558 404.518 153.415 402.213 153.023C401.23 152.854 400.239 152.707 399.252 152.552C401.584 152.156 403.87 152.19 406.15 152.13C406.609 152.119 407.057 151.746 407.596 151.501C408.749 151.768 410.146 152.096 411.544 152.424L411.529 152.062C406.515 147.559 401.505 143.053 396.491 138.55C396.626 138.365 396.762 138.185 396.901 138C399.463 139.579 402.04 141.127 404.579 142.74C407.208 144.409 409.627 146.572 412.459 147.725C416.001 149.165 418.332 151.889 421.086 154.199C421.825 154.817 422.661 155.322 423.557 155.955C424.111 156.614 424.729 157.548 425.535 158.272C426.921 159.512 428.428 160.616 429.879 161.788C430.399 162.206 430.896 162.647 431.404 163.076C431.751 162.601 432.098 162.13 432.535 161.531C432.802 161.961 432.945 162.417 433.254 162.647C434.768 163.77 434.663 167.191 437.884 165.94C438.053 165.876 438.453 166.196 438.637 166.422C439.862 167.944 441.331 167.715 442.936 167.187C442.834 166.882 442.736 166.709 442.725 166.528C442.679 165.876 442.664 165.22 442.638 164.568C443.147 165.028 443.715 165.435 444.156 165.955C444.992 166.942 445.606 168.174 446.582 168.977C448.198 170.303 450.044 171.351 451.762 172.56C452.745 173.254 453.664 174.03 454.941 175.028C454.64 173.966 454.504 173.31 454.271 172.688C453.581 170.827 452.839 168.984 452.154 167.119C452.037 166.807 451.98 166.173 452.093 166.125C453.981 165.273 451.879 164.862 451.916 163.962C452.451 164.146 453.171 164.195 453.28 164.474C453.713 165.593 453.973 166.784 454.256 167.96C454.369 168.427 454.226 169 454.444 169.388C455.401 171.095 456.927 172.632 457.371 174.444C458.577 179.365 463.583 179.998 466.405 183.032C466.563 183.205 467.034 183.043 467.305 183.164C469.603 184.173 472.123 184.245 474.459 185.466C479.081 187.889 484.001 189.758 488.853 191.717C490.729 192.474 492.73 193.1 494.73 193.341C496.549 193.559 498.026 194.11 499.348 195.342C499.725 195.696 500.373 195.783 500.915 195.933C503.27 196.585 505.639 197.196 507.99 197.87C508.389 197.983 508.74 198.315 509.075 198.594C511.03 200.195 513.313 200.478 515.668 200.022C517.721 199.622 518.508 199.991 519.156 201.989C519.909 204.313 521.134 206.25 523.586 207.17C523.978 207.317 524.343 207.855 524.479 208.292C525.025 210.026 525.756 211.767 525.895 213.545C526.091 216.002 526.728 217.777 529.806 217.859C527.967 218.896 527.666 221.398 529.101 222.253C530.231 222.927 531.584 223.225 532.816 223.741C533.584 224.062 534.315 224.476 535.554 225.098C533.317 226.251 531.697 227.087 530.438 227.732C531.139 228.809 532.156 229.936 531.983 230.173C530.367 232.351 531.731 233.994 532.718 235.739C532.887 236.04 532.985 236.383 533.173 236.843C532.616 236.79 532.235 236.756 531.844 236.718C531.915 237.174 531.968 237.51 532.055 238.056C530.529 237.419 529.64 238.06 529.606 239.292C529.542 241.873 529.757 244.367 531.983 246.316C533.347 247.506 534.56 249.006 534.262 251.161C534.191 251.681 534.605 252.352 534.967 252.827C535.758 253.87 536.624 254.858 537.513 255.819C541.499 260.118 545.65 264.274 549.451 268.728C552.348 272.123 554.812 275.891 557.622 279.7C555.422 280.096 555.867 280.955 556.695 281.637C559.63 284.045 560.689 287.636 562.165 290.831C564.444 295.76 566.012 301.016 567.884 306.133C568.129 306.088 568.374 306.046 568.615 306.001V301.675C568.897 301.687 569.176 301.698 569.458 301.709C569.33 303.985 569.202 306.257 569.074 308.533C569.274 308.563 569.474 308.593 569.673 308.627C569.99 307.523 570.31 306.423 570.626 305.319C570.766 305.327 570.905 305.334 571.044 305.345C571.237 307.158 571.429 308.97 571.621 310.779L572.303 310.835C572.634 309.863 572.966 308.891 573.388 307.651C573.738 308.239 574.013 308.563 574.141 308.936C575.222 312.184 576.36 315.417 577.317 318.703C578.153 321.574 578.209 324.819 579.611 327.343C582.075 331.771 581.525 336.507 581.958 341.108C582.41 345.897 582.195 350.758 582.139 355.584C582.112 358.003 581.909 360.43 581.577 362.827C581.295 364.858 580.685 366.843 580.27 368.859C579.784 371.233 578.228 373.524 579.878 376.064C577.362 376.972 576.846 379.108 576.043 381.075C575.241 383.042 574.31 384.96 573.395 386.987C573.18 386.633 572.954 386.252 572.585 385.638C572.367 386.61 572.208 387.322 572.046 388.035C572.22 387.982 572.397 387.929 572.57 387.88C572.871 388.724 573.587 389.666 573.414 390.397C572.276 395.152 571.301 400.043 566.901 403.156C566.708 403.291 566.633 403.581 566.46 403.755C565.443 404.776 564.411 405.786 563.382 406.799C563.115 406.57 562.847 406.34 562.576 406.11C563.864 404.184 564.908 402.014 566.509 400.401C568.283 398.615 569.669 396.814 570.317 394.346C570.679 392.963 570.381 392.225 568.965 391.539C568.713 392.183 568.633 392.861 568.257 393.253C566.464 395.134 564.851 397.379 562.681 398.66C559.924 400.288 556.688 401.102 553.67 402.297C553.343 402.428 553.041 402.711 552.811 402.994C550.521 405.771 546.701 405.782 544.03 407.873C543.91 407.967 543.646 407.964 543.484 407.903C541.853 407.304 541.457 408.325 541.344 409.584C541.216 411.008 540.614 411.898 539.046 411.992C539.156 411.102 539.257 410.273 539.431 408.864C537.035 411.717 536.375 415.39 533.042 416.37C532.473 415.843 531.862 415.157 531.772 415.217C531.056 415.715 530.442 416.351 529.809 416.935C531.719 419.117 531.991 422.798 529.286 424.091C529.048 421.879 528.826 419.829 528.608 417.779C528.374 417.738 528.141 417.693 527.907 417.651C527.086 419.189 526.103 420.669 525.5 422.29C525.025 423.571 525.018 425.029 524.81 426.412C524.72 427.03 524.543 427.659 524.596 428.27C524.746 429.954 524.626 431.484 523.273 432.757C522.893 433.119 522.867 433.869 522.705 434.449C522.305 435.866 522.29 437.58 521.446 438.639C519.939 440.523 519.405 442.66 519.02 444.856C518.757 446.356 518.971 447.939 518.971 449.563C518.508 449.389 517.973 449.186 517.385 448.967C517.355 452.117 516.719 453.975 515.475 454.54C516.662 455.61 516.078 456.443 515.366 457.562C514.602 458.768 514.338 460.313 513.938 461.733C513.46 463.433 513.434 465.4 512.526 466.805C511.712 468.064 511.332 469.107 511.396 470.558C511.456 471.956 511.418 473.475 510.932 474.759C509.418 478.78 507.674 482.714 506.005 486.678C505.862 487.017 505.677 487.446 505.387 487.597C503.021 488.837 502.686 491.263 501.997 493.434C498.9 503.155 496.271 513.05 492.673 522.583C490.126 529.332 486.766 535.888 482.931 542.004C478.102 549.702 471.946 556.443 465.278 562.694C461.847 565.915 458.309 568.934 455.778 573.21C450.202 582.638 443.941 591.662 437.884 600.8C434.84 605.389 431.555 609.824 428.545 614.436C427.988 615.292 427.86 616.761 428.146 617.771C429.069 621.023 430.165 624.241 431.423 627.379C432.06 628.969 433.111 630.409 434.102 631.829C435.028 633.159 436.057 634.433 437.153 635.628C439.123 637.779 440.871 640.345 443.271 641.845C446.578 643.917 450.372 645.236 454.018 646.736C457.202 648.047 460.46 649.181 463.7 650.361C467.995 651.92 472.248 653.631 476.617 654.939C481.036 656.261 485.598 657.098 490.059 658.288C491.848 658.767 493.487 659.758 493.875 661.804C494.304 664.076 494.666 666.367 494.865 668.669C495.212 672.645 496.433 676.032 500.35 677.814C502.682 678.877 505.078 679.8 507.376 680.923C511.204 682.792 515.042 684.646 518.753 686.729C523.386 689.333 527.975 692.039 532.435 694.932C535.257 696.76 537.811 698.998 540.478 701.067C543.936 703.75 547.481 706.331 550.811 709.164C555.234 712.932 559.506 716.874 563.796 720.792C566.569 723.325 569.545 725.713 571.93 728.581C577.437 735.209 583.499 741.381 588.125 748.759C590.973 753.299 594.623 757.331 597.61 761.796C600.142 765.587 602.387 769.588 604.485 773.639C606.904 778.304 608.979 783.142 611.292 787.867C611.861 789.028 612.799 789.996 613.492 791.1C615.346 794.054 617.158 797.035 618.989 800L619 799.996ZM352.193 170.914C355.606 170.043 359.015 169.169 362.428 168.299C358.865 168.585 355.32 168.943 352.193 170.914Z" fill="#808080" fill-opacity="0.08"/>
</svg>
